packages/core/src/svgs/tokens/branded/WEFI.svg

<svg width="24" height="24" viewBox="0 0 24 24" fill="none" xmlns="http://www.w3.org/2000/svg">
<path fill-rule="evenodd" clip-rule="evenodd" d="M17.5231 10.7179C17.5795 9.75382 18.2205 7.64099 20.2974 7.64099C20.7795 7.64099 21.3641 7.83587 21.5948 7.93844L21.4102 9.3692C21.1281 9.22933 20.8175 9.15567 20.5026 9.15382C19.9795 9.15382 19.5076 9.4051 19.1949 10.7179H22L21.1795 16.359H19.4872L20.1538 11.7435H19.0102L18.3589 16.359H16.6667L17.3641 11.7435H16.1487L16.3538 10.7179H17.5231ZM2.88718 12.4922C3.12248 12.4922 3.34813 12.3988 3.51451 12.2325C3.68088 12.066 3.77436 11.8403 3.77436 11.6051C3.77436 11.3698 3.68088 11.1442 3.51451 10.9777C3.34813 10.8114 3.12248 10.7179 2.88718 10.7179C2.65189 10.7179 2.42623 10.8114 2.25985 10.9777C2.09348 11.1442 2 11.3698 2 11.6051C2 11.8403 2.09348 12.066 2.25985 12.2325C2.42623 12.3988 2.65189 12.4922 2.88718 12.4922ZM2.37948 12.9743C2.68205 13.0564 3.39488 13.1128 3.86154 12.6666L4.1282 13.8922L5.93846 10.7179H6.98974L7.51282 13.8922L9.29743 10.7179H11.0564L7.73847 16.359H6.57948L5.9641 13.4051L4.30769 16.359H3.21539L2.37948 12.9743ZM12.2051 13.7948H16.0615C16.2308 12.8 15.9744 10.7179 13.5692 10.7179C10.5642 10.7179 10.4615 13.3179 10.4615 13.8666C10.4615 14.4154 10.7385 16.359 13.3333 16.359C14.3128 16.359 15.118 16.0615 15.3949 15.9179L15.7128 14.4717C15.359 14.682 14.4461 15.0974 13.6256 15.0974C12.6 15.0974 12.1179 14.6359 12.2051 13.7948ZM12.4461 12.7692H14.4102C14.4615 12.4256 14.3743 11.7435 13.6154 11.7435C12.8616 11.7435 12.5231 12.4256 12.4461 12.7692Z" fill="#36FEBC"/>
</svg>

<svg xmlns="http://www.w3.org/2000/svg" width="24" height="24" fill="none" viewBox="0 0 24 24">
    <path fill="#36FEBC" fill-rule="evenodd" d="M17.523 10.718c.056-.964.698-3.077 2.774-3.077.482 0 1.067.195 1.298.297L21.41 9.37a2.1 2.1 0 0 0-.907-.215c-.523 0-.995.251-1.308 1.564H22l-.82 5.641h-1.693l.667-4.616H19.01l-.651 4.616h-1.692l.697-4.616H16.15l.205-1.025zM2.887 12.492a.887.887 0 1 0 0-1.775.887.887 0 0 0 0 1.775m-.508.482c.303.082 1.016.139 1.483-.307l.266 1.225 1.81-3.174H6.99l.523 3.174 1.784-3.174h1.76l-3.319 5.641H6.58l-.615-2.954-1.656 2.954H3.215zm9.826.82h3.856c.17-.994-.087-3.076-2.492-3.076-3.005 0-3.108 2.6-3.108 3.149s.277 2.492 2.872 2.492c.98 0 1.785-.298 2.062-.441l.318-1.446c-.354.21-1.267.625-2.087.625-1.026 0-1.508-.461-1.42-1.302m.241-1.025h1.964c.051-.343-.036-1.026-.795-1.026-.753 0-1.092.683-1.169 1.026" clip-rule="evenodd"/>
</svg>
